X: 20284
T: Joey Clement's
R: polka
M: 2/4
K: Edorian
EF AF|EF D2|EF AF|EF A2|
Bc/B/ AF|EF D2|EF AF|E2 E2:|
|:Be ed|BA d2|Be2f|e2 de|
fe ed|B2 AF|EF AF|E4:|

